dist/img/svg/search-ico.svg

<svg width="14" height="14" viewBox="0 0 14 14" fill="none" xmlns="http://www.w3.org/2000/svg">
<path d="M13.7552 12.5582L9.70023 8.50142C10.3462 7.61648 10.7239 6.53267 10.7239 5.35938C10.7239 2.40625 8.31874 0 5.35699 0C2.39524 0 0 2.40625 0 5.35938C0 8.3125 2.40518 10.7188 5.35699 10.7188C6.52977 10.7188 7.61309 10.3409 8.49764 9.6946L12.5527 13.7514C12.7216 13.9205 12.9303 14 13.149 14C13.3676 14 13.5863 13.9205 13.7453 13.7514C14.0832 13.4233 14.0832 12.8963 13.7552 12.5582ZM5.35699 9.02841C3.33942 9.02841 1.68959 7.38778 1.68959 5.35938C1.68959 3.33097 3.33942 1.69034 5.35699 1.69034C7.3845 1.69034 9.02439 3.34091 9.02439 5.35938C9.02439 7.37784 7.3845 9.02841 5.35699 9.02841Z" fill="#BFBFBF"/>
</svg>

<svg width="14" height="14" viewBox="0 0 14 14" fill="none" xmlns="http://www.w3.org/2000/svg"><path d="M13.755 12.558L9.7 8.501a5.305 5.305 0 0 0 1.024-3.142A5.369 5.369 0 0 0 5.357 0 5.36 5.36 0 0 0 0 5.36a5.367 5.367 0 0 0 5.357 5.359 5.299 5.299 0 0 0 3.14-1.024l4.056 4.056c.169.17.377.249.596.249a.81.81 0 0 0 .596-.249.838.838 0 0 0 .01-1.193zm-8.398-3.53A3.672 3.672 0 0 1 1.69 5.36a3.672 3.672 0 0 1 3.667-3.67 3.672 3.672 0 0 1 3.667 3.67 3.672 3.672 0 0 1-3.667 3.668z" fill="#BFBFBF"/></svg>
